src/frontend/assets/heroic-icon.svg

<svg width="256" height="256" viewBox="0 0 256 256" fill="none" xmlns="http://www.w3.org/2000/svg">
<path fill-rule="evenodd" clip-rule="evenodd" d="M72.3901 202.231C72.7994 204.136 73.84 205.848 75.3433 207.088L122.528 246.021C125.698 248.636 130.269 248.662 133.468 246.083L181.789 207.121C183.351 205.862 184.427 204.099 184.832 202.133L214.033 60.6054C214.857 56.6111 212.78 52.5836 209.049 50.9384L135.478 18.5049L131.464 16.7354C129.24 15.755 126.706 15.755 124.482 16.7354L120.468 18.5049L46.9504 50.915C43.1944 52.5708 41.1185 56.6374 41.9805 60.6505L72.3901 202.231Z" fill="#070A0B"/>
<path fill-rule="evenodd" clip-rule="evenodd" d="M145.017 66.7371L127.505 36.4211L109.993 66.7371H145.017ZM133.342 184.892L145.017 66.7376H109.993L122.64 184.892L127.991 189.168L133.342 184.892Z" fill="#070A0B"/>
<path fill-rule="evenodd" clip-rule="evenodd" d="M159.336 182.357L135.341 186.516L130.427 193.545L135.341 200.738L159.336 204.733L159.339 204.733L165.451 193.545L159.339 182.357L159.336 182.357Z" fill="#070A0B"/>
<path fill-rule="evenodd" clip-rule="evenodd" d="M136.258 225.23L133.183 202.565L127.988 197.924L122.672 202.565L119.718 225.23L119.718 225.23L127.988 231.003L136.258 225.23L136.258 225.23Z" fill="#070A0B"/>
<path fill-rule="evenodd" clip-rule="evenodd" d="M96.6346 182.357L120.633 186.516L125.547 193.545L120.633 200.738L96.6346 204.733L96.6326 204.73L90.5228 193.545L96.6326 182.36L96.6346 182.357Z" fill="#070A0B"/>
<path fill-rule="evenodd" clip-rule="evenodd" d="M76.599 191.563C76.9774 193.325 77.9394 194.907 79.3292 196.054L122.95 232.046C125.88 234.464 130.106 234.487 133.063 232.103L177.735 196.084C179.179 194.92 180.174 193.29 180.548 191.473L207.543 60.635C208.305 56.9424 206.385 53.2191 202.935 51.6982L134.92 21.7141L131.211 20.0786C129.155 19.1723 126.812 19.1723 124.756 20.0786L121.047 21.7141L53.0808 51.6765C49.6086 53.2072 47.6895 56.9667 48.4863 60.6767L76.599 191.563Z" fill="url(#paint0_linear_2798_8229)"/>
<path fill-rule="evenodd" clip-rule="evenodd" d="M143.738 66.303L127.548 38.2768L111.359 66.303H143.738ZM132.945 175.533L143.738 66.3032H111.359L123.051 175.533L127.998 179.486L132.945 175.533Z" fill="#070A0B"/>
<path fill-rule="evenodd" clip-rule="evenodd" d="M156.981 173.19L134.797 177.036L130.254 183.533L134.797 190.183L156.981 193.876L156.983 193.877L162.633 183.533L156.983 173.19L156.981 173.19Z" fill="#070A0B"/>
<path fill-rule="evenodd" clip-rule="evenodd" d="M135.641 212.825L132.799 191.872L127.996 187.581L123.081 191.872L120.351 212.825L120.351 212.825L127.996 218.161L135.641 212.825L135.641 212.825Z" fill="#070A0B"/>
<path fill-rule="evenodd" clip-rule="evenodd" d="M99.019 173.19L121.203 177.036L125.746 183.533L121.203 190.183L99.019 193.876L99.0172 193.877L93.367 183.533L99.0172 173.19L99.019 173.19Z" fill="#070A0B"/>
<defs>
<linearGradient id="paint0_linear_2798_8229" x1="165.899" y1="22.4219" x2="164.147" y2="227.229" gradientUnits="userSpaceOnUse">
<stop stop-color="#4B93FF"/>
<stop offset="1" stop-color="#18DFEC"/>
</linearGradient>
</defs>
</svg>

<svg xmlns="http://www.w3.org/2000/svg" width="256" height="256" fill="none" viewBox="0 0 256 256"><path fill="#070a0b" fill-rule="evenodd" d="M72.39 202.231a8.65 8.65 0 0 0 2.953 4.857l47.185 38.933a8.655 8.655 0 0 0 10.94.062l48.321-38.962a8.65 8.65 0 0 0 3.043-4.988l29.201-141.528a8.655 8.655 0 0 0-4.984-9.667l-73.571-32.433-4.014-1.77a8.65 8.65 0 0 0-6.982 0l-4.014 1.77-73.518 32.41a8.65 8.65 0 0 0-4.97 9.736z" clip-rule="evenodd"/><path fill="#070a0b" fill-rule="evenodd" d="m145.017 66.737-17.512-30.316-17.512 30.316zm-11.675 118.155 11.675-118.154h-35.024l12.647 118.154 5.351 4.276zM159.336 182.357l-23.995 4.159-4.914 7.029 4.914 7.193 23.995 3.995h.003l6.112-11.188-6.112-11.188zM136.258 225.23l-3.075-22.665-5.195-4.641-5.316 4.641-2.954 22.665 8.27 5.773zM96.635 182.357l23.998 4.159 4.914 7.029-4.914 7.193-23.998 3.995-.002-.003-6.11-11.185 6.11-11.185z" clip-rule="evenodd"/><path fill="url(#a)" fill-rule="evenodd" d="M76.599 191.563a8 8 0 0 0 2.73 4.491l43.621 35.992a8 8 0 0 0 10.113.057l44.672-36.019a8 8 0 0 0 2.813-4.611l26.995-130.838a8 8 0 0 0-4.608-8.937L134.92 21.714l-3.709-1.635a8 8 0 0 0-6.455 0l-3.709 1.635-67.966 29.963a8 8 0 0 0-4.595 9z" clip-rule="evenodd"/><path fill="#070a0b" fill-rule="evenodd" d="m143.738 66.303-16.19-28.026-16.189 28.026zm-10.793 109.23 10.793-109.23h-32.379l11.692 109.23 4.947 3.953zM156.981 173.19l-22.184 3.846-4.543 6.497 4.543 6.65 22.184 3.693.002.001 5.65-10.344-5.65-10.343zM135.641 212.825l-2.842-20.953-4.803-4.291-4.915 4.291-2.73 20.953 7.645 5.336zM99.019 173.19l22.184 3.846 4.543 6.497-4.543 6.65-22.184 3.693-.002.001-5.65-10.344 5.65-10.343z" clip-rule="evenodd"/><defs><linearGradient id="a" x1="165.899" x2="164.147" y1="22.422" y2="227.229" gradientUnits="userSpaceOnUse"><stop stop-color="#4b93ff"/><stop offset="1" stop-color="#18dfec"/></linearGradient></defs></svg>
